X: 21651
T: Killimor, The
R: jig
M: 6/8
K: Gmajor
|:DEF G2G|BAG ABc|d^cd faf|ded cAF|
DEF G2G|BAG ABc|d^cd fed|1 cAF G3:|2 cAF G2D||
|:GBd gbg|dgb gdB|GBd gbg|fed cAF|
GBd gbg|dgb gdB|GBd fed|1 cAF G2D:|2 cAF G3||

